X: 2031
T: Lord Aboyne
%R: strathspey
B: Niel Gow & Sons "Complete Repository" v.2 p.3 #1
Z: 2021 John Chambers <jc:trillian.mit.edu>
M: C
L: 1/8
Q: "SLOW"
K: D
% - - - - - - - - - -
% Voice 1 formatted for compactness and proofreading.
V: 1 staves=2
DE |\
F2 F>E F3 d | A2 {B}A>F [E2C2] D>E |\
F2 F2 d2 F>E | (F4 B2) :| ~d>e |\
f2 f>e d2 TB>A | A>BdF [E2C2] ~d>e |
(dc) (BA) d2 TF>E | F4 B2 ~d>e |\
[f2A2] [fA]>[eG] [d2F2] [BG]>[AF] | A>BdF [E2C2] !p!~d>e |\
(dc) (B>A) d2 (TF>E) | F4 B2 |]
% - - - - - - - - - -
% Voice 2 preserves the book's staff layout.
V: 2 clef=bass middle=d
z2 |\
d2A2 D2d2 | f2d2 a2fa | d'2d2 b2c'2 | d'2B2 B2 :| z2 | d'3c' b2g2 | f2d2 a2z2 |
D2d2 B2c2 | d2D2 G2z2 | d2d'2 d2g2 | fgfd a2z2 | d2d'2 b2c'2 | d'2d2 [g2d2] |]


